X: 26758
T: Mill Of Laggan, The
R: reel
M: 4/4
K: Fmajor
FAcff2ef|gaba gGGA|FAcff2ef|1 afgef2fF:|2 afgef2f2||
AccAd2dB|defd eccb|agfef2cB|AcGB AFFB|
AccAd2dB|defd eccb|acfa gceg|fdcB AFFE||

